X: 26566
T: Mick Curran's
R: polka
M: 2/4
K: Dmajor
|:DD FG|AF G2|G/A/G/F/ GA|Bc/B/ A2|
DD FG|AF GB|AD CE|1 {F}ED DA,:|2 {F}ED Dc||
|:dA dB|c/B/A AB|c2 cB|BA GB|
AD DF|AF GB|AD CE|1 {F}ED Dc:|2 {F}ED DA,||

